!!! OTL: Berkowitz613
!!! Chapter: 1
!!! Section: V
!!! Page: 156
!!! Mode: 
!!! Encoder: AR
**kern
*staff1
!!pagebreak:original
*clefG2
*k[]
*C:
*M4/4
8B-/L
8B-/
8g-/J
=1
2g-/
8r
8B-/
8B-/L
8g-/J
=2
8g-/L
8b--/J
4g-/
8r
8g-/
8b-/L
8a/J
=3
2c#/
8r
8gn/
8g/L
8e/J
=4
4g-/
4e-/
8r
8d/
8d/L
8b/J
=5
!!linebreak:original
2b\
8r
8a-/
8a-\L
8cc-\J
=6
8cc-\L
8b-\J
4d/
4r
8B-/L
8d-/J
=7
4.g/
8f/
2A/
=8
4G#/
4e/
8r
8c/
8c/L
8a/J
=9
!!linebreak:original
2a/
8r
8g-/
8g-/L
8B-/J
=10
2a/
8r
8g-/
8B-/L
8g-/J
=11
1g-
=12
2A/
2A/
=13
2A/
2r
==
*-
